X:428
T:B428-  Since Celia's My Foe
Q:1/4=120
L:1/4
M:3/4
K:Bb
F|Bcd|f2g/f/|d(c/B/)c|e2f3/4d/4|\
BBb|ggb|B3/2c/ (d/c/)|c2::e/f/|\
gfe|e3/2f/ (g/f/)|f(e/d/) (c/B/)|A3/2G/ (A/4B/4c/)|\
d(B/c/) (B/G/)|(c/d/) (c/B/) (A/F/)|(B/c/) (B/G/) (F/G/)|\
[1 B2:|[2 .B2|]
